dist/img/linkedin.svg

<svg xmlns="http://www.w3.org/2000/svg" width="48" height="48"><path fill="#0288d1" d="M24 4a20 20 0 100 40 20 20 0 100-40z"/><path fill="#fff" d="M14 19h4v15h-4zm1.988-2h-.022C14.772 17 14 16.11 14 14.999c0-1.135.796-1.999 2.011-1.999 1.217 0 1.966.864 1.989 1.999C18 16.11 17.228 17 15.988 17zM35 24.5a5.5 5.5 0 00-5.5-5.5 5.49 5.49 0 00-4.5 2.344V19h-4v15h4v-8a3 3 0 116 0v8h4v-9.5z"/></svg>

<svg xmlns="http://www.w3.org/2000/svg"  viewBox="0 0 48 48" width="48px" height="48px"><path fill="#0288d1" d="M24 4A20 20 0 1 0 24 44A20 20 0 1 0 24 4Z"/><path fill="#fff" d="M14 19H18V34H14zM15.988 17h-.022C14.772 17 14 16.11 14 14.999 14 13.864 14.796 13 16.011 13c1.217 0 1.966.864 1.989 1.999C18 16.11 17.228 17 15.988 17zM35 24.5c0-3.038-2.462-5.5-5.5-5.5-1.862 0-3.505.928-4.5 2.344V19h-4v15h4v-8c0-1.657 1.343-3 3-3s3 1.343 3 3v8h4C35 34 35 24.921 35 24.5z"/></svg>
